X:23
T:Reel 23
M:4/4
K:Dmaj
L:1/8
dB|A>D (3DDD DGFD|DCDE FDEG|A>D (3DDD DGFG|EA,A,^C D2FG|A<F (3FFF GFGE|A,>E (3EFE B>E (3EDG |BAGF EFGE|AGEF D2|AG|FAdc B2Bd|FAdc BAGF|EEe^d eBGF|Eee^d eBAG|FDA,D FAdA|FAAc d2Ad|Bdce dBAG|FDEC D2|
